img/svg/partners-image-8.svg

<svg width="167" height="52" viewBox="0 0 167 52" fill="none" xmlns="http://www.w3.org/2000/svg">
<path d="M38.1937 27.9633C38.1937 21.9612 42.3972 17.0809 48.3546 17.0809C54.98 17.0809 58.3206 22.3258 58.3206 28.356C58.3206 28.6365 58.3206 29.4779 58.237 29.6742H43.0653C43.5386 33.0399 45.9605 34.9191 49.0227 34.9191C51.3611 34.9191 53.0313 34.0777 54.6181 32.3948L57.4019 34.9191C55.4532 37.2751 52.753 38.8738 48.9113 38.8738C42.7313 38.9579 38.1937 34.5545 38.1937 27.9633ZM53.4489 26.5609C53.1705 23.4757 51.3054 21.0356 48.2432 21.0356C45.3481 21.0356 43.3159 23.2794 42.8426 26.5609H53.4489ZM59.4062 28.0755C59.4062 22.1575 63.9717 17.1931 70.1239 17.1931C74.049 17.1931 76.4709 18.7077 78.4196 20.7551L75.4409 23.9525C73.9377 22.438 72.4622 21.3161 70.0403 21.3161C66.5884 21.3161 64.083 24.3171 64.083 28.0755C64.083 31.8339 66.5884 34.8349 70.3187 34.8349C72.5458 34.8349 74.2439 33.7972 75.7193 32.1985L78.6144 35.0032C76.5544 37.247 74.1325 38.9579 70.1239 38.9579C63.8882 38.9579 59.4062 34.0777 59.4062 28.0755ZM78.6144 28.0755C78.6144 22.0734 83.3747 17.1931 89.6939 17.1931C96.041 17.1931 100.69 22.0734 100.69 28.0755C100.69 33.9935 95.9297 38.9579 89.6104 38.9579C83.2634 38.9579 78.6144 34.0777 78.6144 28.0755ZM95.9296 28.0755C95.9296 24.4013 93.3129 21.3161 89.5826 21.3161C85.7688 21.3161 83.3469 24.3171 83.3469 28.0755C83.3469 31.7497 85.9637 34.8349 89.6939 34.8349C93.5078 34.7228 95.9296 31.7217 95.9296 28.0755ZM101.163 35.7605L103.307 32.479C105.534 34.1618 107.956 35.0032 110.099 35.0032C112.159 35.0032 113.356 34.1618 113.356 32.6473C113.356 31.1327 111.408 30.5717 109.069 29.9266C108.986 29.9266 108.791 29.8425 108.707 29.8425C105.645 28.9169 102.277 27.6828 102.277 23.5599C102.277 19.6052 105.534 17.165 109.626 17.165C112.243 17.165 115.027 18.0906 117.254 19.521L115.388 22.8867C113.44 21.6526 111.296 20.9234 109.515 20.9234C107.649 20.9234 106.619 21.7648 106.619 23.0831C106.619 24.4854 108.568 25.1586 110.906 25.8878C110.99 25.8878 111.185 25.9719 111.268 25.9719C114.247 26.8975 117.699 28.3279 117.699 32.1704C117.699 36.5739 114.358 38.7335 109.96 38.7335C106.926 38.8457 103.669 37.7238 101.163 35.7605ZM118.673 28.0755C118.673 22.0734 123.434 17.1931 129.753 17.1931C136.1 17.1931 140.749 22.0734 140.749 28.0755C140.749 33.9935 135.988 38.9579 129.669 38.9579C123.322 38.9579 118.673 34.0777 118.673 28.0755ZM135.988 28.0755C135.988 24.4013 133.372 21.3161 129.641 21.3161C125.828 21.3161 123.406 24.3171 123.406 28.0755C123.406 31.7497 126.022 34.8349 129.753 34.8349C133.567 34.7228 135.988 31.7217 135.988 28.0755ZM143.727 21.6807H141.111V17.6419H143.727V16.1273C143.727 13.7713 144.841 8.61057 153.888 8.61057V12.7336C152.218 12.7336 148.404 12.7335 148.404 16.4919V17.6138H153.888V21.5685H148.488V38.3689H143.727V21.6807ZM156.756 32.6753V12.8738C157.869 13.0701 160.486 13.6311 161.516 14.3883V17.6699H164.689V21.6246H161.516V31.8619C161.516 33.7411 162.435 34.4984 164.021 34.4984C165.051 34.4984 165.97 34.2179 167 33.7411V37.6958C165.775 38.3409 164.495 38.7335 162.713 38.7335C159.289 38.7616 156.756 37.2751 156.756 32.6753ZM39.7526 45.3247H40.5043L41.8126 49.3635L43.121 45.3247H43.7613L45.0697 49.3635L46.3781 45.3247H47.1297L45.3481 50.4013H44.7078L43.3994 46.4466L42.091 50.4013H41.4507L39.7526 45.3247ZM47.2132 48.8026C47.2132 47.7648 48.0483 47.2039 49.3567 47.2039C49.997 47.2039 50.4702 47.288 50.86 47.4002V47.2039C50.86 46.3625 50.3032 45.8856 49.3567 45.8856C48.8 45.8856 48.3267 46.082 47.8535 46.2503L47.6586 45.6893C48.2154 45.4088 48.6886 45.2125 49.4402 45.2125C50.1919 45.2125 50.6651 45.4088 51.027 45.7735C51.3889 46.1381 51.5838 46.6149 51.5838 47.288V50.2891H50.8321V49.5318C50.4702 50.0086 49.9135 50.3732 49.0505 50.3732C48.1597 50.4013 47.2132 49.8403 47.2132 48.8026ZM50.86 48.438V47.9612C50.4981 47.877 50.0248 47.7648 49.3567 47.7648C48.4381 47.7648 47.8535 48.1295 47.8535 48.8026C47.8535 49.4757 48.4102 49.8403 49.0784 49.8403C50.1084 49.7562 50.86 49.2794 50.86 48.438ZM52.7251 48.9989V45.9978H52.0849V45.3527H52.7251V43.8382H53.4767V45.3527H55.0635V45.9978H53.4767V48.9148C53.4767 49.4757 53.8386 49.7562 54.3119 49.7562C54.5903 49.7562 54.7851 49.6721 55.0635 49.5599V50.205C54.7851 50.2891 54.5068 50.4013 54.1449 50.4013C53.2819 50.4013 52.7251 49.9245 52.7251 48.9989ZM57.6524 49.7562C58.2927 49.7562 58.766 49.4757 59.2392 48.9989L59.7125 49.3635C59.2392 49.9245 58.5989 50.2891 57.6524 50.2891C56.2605 50.2891 55.147 49.2513 55.147 47.6526C55.147 46.2503 56.177 45.0162 57.5689 45.0162C59.0722 45.0162 59.9073 46.2503 59.9073 47.6526V47.9331H55.8987C55.9822 49.1953 56.8173 49.7562 57.6524 49.7562ZM59.0443 47.4844C58.9608 46.5588 58.4041 45.8015 57.4576 45.8015C56.6224 45.8015 55.9543 46.5588 55.8708 47.4844H59.0443ZM60.5476 45.3247H61.2992V46.6429C61.6611 45.8015 62.4127 45.2406 63.3592 45.2406V46.082H63.2757C62.1622 46.082 61.3271 46.8393 61.3271 48.3258V50.2891H60.5754C60.5476 50.3172 60.5476 45.3247 60.5476 45.3247ZM66.1152 45.3247H66.8668V46.3625C67.2287 45.8015 67.8968 45.2406 68.732 45.2406C69.9568 45.2406 71.0704 46.1661 71.0704 47.877C71.0704 49.4757 69.8455 50.5135 68.732 50.5135C67.8133 50.5135 67.2287 50.0367 66.8668 49.4757V52H66.1152V45.3247ZM70.4022 47.7648C70.4022 46.5307 69.5671 45.8015 68.6206 45.8015C67.6741 45.8015 66.839 46.5588 66.839 47.7648C66.839 48.9709 67.6741 49.7282 68.6206 49.7282C69.5671 49.7282 70.4022 48.9989 70.4022 47.7648ZM71.9055 45.3247H72.6571V46.6429C73.019 45.8015 73.7706 45.2406 74.7171 45.2406V46.082H74.6336C73.5201 46.082 72.6849 46.8393 72.6849 48.3258V50.2891H71.9055C71.9055 50.3172 71.9055 45.3247 71.9055 45.3247ZM74.6893 47.7648C74.6893 46.3625 75.8028 45.1284 77.306 45.1284C78.8093 45.1284 79.9228 46.3625 79.9228 47.7648C79.9228 49.1672 78.8093 50.4013 77.306 50.4013C75.7193 50.4013 74.6893 49.1953 74.6893 47.7648ZM79.0877 47.7648C79.0877 46.7271 78.2525 45.8015 77.2225 45.8015C76.109 45.8015 75.4409 46.6429 75.4409 47.7648C75.4409 48.8867 76.1925 49.7282 77.306 49.7282C78.3361 49.7562 79.0877 48.9148 79.0877 47.7648ZM80.6466 45.9978H80.0063V45.3527H80.6466V44.8759C80.6466 44.315 80.8415 43.8382 81.1199 43.5577C81.3982 43.2772 81.7601 43.1931 82.1499 43.1931C82.5396 43.1931 82.7066 43.1931 82.985 43.2772V43.9223C82.7066 43.8382 82.5117 43.8382 82.2334 43.8382C81.6766 43.8382 81.3982 44.2028 81.3982 44.8759V45.2406H82.985V45.8856H81.3982V50.205H80.6466V45.9978ZM85.4069 49.7562C86.0472 49.7562 86.5204 49.4757 86.9937 48.9989L87.4669 49.3635C86.9937 49.9245 86.3534 50.2891 85.4069 50.2891C84.015 50.2891 82.9015 49.2513 82.9015 47.6526C82.9015 46.2503 83.9315 45.0162 85.2399 45.0162C86.7431 45.0162 87.5783 46.2503 87.5783 47.6526V47.9331H83.6531C83.7366 49.1953 84.5718 49.7562 85.4069 49.7562ZM86.9101 47.4844C86.8266 46.5588 86.3534 45.8015 85.3234 45.8015C84.4883 45.8015 83.8201 46.5588 83.7366 47.4844H86.9101ZM87.8288 49.644L88.1907 49.0831C88.7475 49.4477 89.3042 49.7282 89.861 49.7282C90.4177 49.7282 90.891 49.4477 90.891 48.8867C90.891 48.4099 90.3342 48.2416 89.6661 48.0453C88.9145 47.849 87.9958 47.5685 87.9958 46.6429C87.9958 45.8015 88.7475 45.2406 89.6661 45.2406C90.2229 45.2406 90.9745 45.4369 91.4477 45.8015L91.0858 46.3625C90.6126 46.082 90.0558 45.8856 89.5826 45.8856C89.0258 45.8856 88.6639 46.1661 88.6639 46.6429C88.6639 47.1197 89.3042 47.288 89.9723 47.4844C90.724 47.6807 91.5591 48.0453 91.5591 48.8867C91.5591 49.8123 90.8075 50.4013 89.7775 50.4013C89.2207 50.4013 88.3856 50.1208 87.8288 49.644ZM92.0323 49.644L92.3942 49.0831C92.951 49.4477 93.5078 49.7282 94.0645 49.7282C94.6213 49.7282 95.0945 49.4477 95.0945 48.8867C95.0945 48.4099 94.5378 48.2416 93.8696 48.0453C93.118 47.849 92.1994 47.5685 92.1994 46.6429C92.1994 45.8015 92.951 45.2406 93.8696 45.2406C94.4264 45.2406 95.178 45.4369 95.6513 45.8015L95.2894 46.3625C94.8161 46.082 94.2594 45.8856 93.7861 45.8856C93.2294 45.8856 92.8675 46.1661 92.8675 46.6429C92.8675 47.1197 93.5078 47.288 94.1759 47.4844C94.9275 47.6807 95.7626 48.0453 95.7626 48.8867C95.7626 49.8123 95.011 50.4013 93.981 50.4013C93.3407 50.4013 92.5891 50.1208 92.0323 49.644ZM96.4864 43.3614H97.3215V44.2028H96.4864V43.3614ZM96.4864 45.3247H97.238V50.2891H96.4864V45.3247ZM97.9897 47.7648C97.9897 46.3625 99.1032 45.1284 100.606 45.1284C102.11 45.1284 103.223 46.3625 103.223 47.7648C103.223 49.1672 102.11 50.4013 100.606 50.4013C99.1032 50.4013 97.9897 49.1953 97.9897 47.7648ZM102.444 47.7648C102.444 46.7271 101.609 45.8015 100.579 45.8015C99.4651 45.8015 98.797 46.6429 98.797 47.7648C98.797 48.8867 99.5486 49.7282 100.662 49.7282C101.72 49.7562 102.444 48.9148 102.444 47.7648ZM103.863 45.3247H104.615V46.1661C104.893 45.6052 105.45 45.2406 106.285 45.2406C107.51 45.2406 108.151 46.082 108.151 47.2039V50.2891H107.399V47.3722C107.399 46.4466 106.926 45.8576 106.007 45.8576C105.172 45.8576 104.504 46.5027 104.504 47.4563V50.2611H103.752V45.2967C103.752 45.3247 103.863 45.3247 103.863 45.3247ZM108.791 48.8026C108.791 47.7648 109.626 47.2039 110.934 47.2039C111.575 47.2039 112.048 47.288 112.438 47.4002V47.2039C112.438 46.3625 111.881 45.8856 110.934 45.8856C110.378 45.8856 109.904 46.082 109.431 46.2503L109.236 45.6893C109.793 45.4088 110.35 45.2125 111.018 45.2125C111.769 45.2125 112.243 45.4088 112.605 45.7735C112.966 46.1381 113.161 46.6149 113.161 47.288V50.2891H112.41V49.5318C112.048 50.0086 111.491 50.3732 110.628 50.3732C109.709 50.4013 108.791 49.8403 108.791 48.8026ZM112.438 48.438V47.9612C112.076 47.877 111.602 47.7648 110.934 47.7648C110.016 47.7648 109.431 48.1295 109.431 48.8026C109.431 49.4757 109.988 49.8403 110.656 49.8403C111.686 49.7562 112.438 49.2794 112.438 48.438ZM114.191 43.2772H114.943V50.3172H114.191V43.2772ZM115.5 49.644L115.862 49.0831C116.418 49.4477 116.975 49.7282 117.532 49.7282C118.089 49.7282 118.562 49.4477 118.562 48.8867C118.562 48.4099 118.005 48.2416 117.337 48.0453C116.585 47.849 115.667 47.5685 115.667 46.6429C115.667 45.8015 116.418 45.2406 117.337 45.2406C117.894 45.2406 118.645 45.4369 119.119 45.8015L118.757 46.3625C118.284 46.082 117.727 45.8856 117.254 45.8856C116.697 45.8856 116.335 46.1661 116.335 46.6429C116.335 47.1197 116.975 47.288 117.643 47.4844C118.395 47.6807 119.23 48.0453 119.23 48.8867C119.23 49.8123 118.478 50.4013 117.448 50.4013C116.892 50.4013 116.057 50.1208 115.5 49.644ZM37.7205 0.560949C35.8553 0.196332 33.9067 0 31.958 0H31.1229C14.1417 0.476807 0.445408 14.2762 0 31.3571C0.918653 31.4412 1.78163 31.4412 2.70028 31.4412C4.28705 31.4412 5.87381 31.2449 7.46058 31.0766C9.52059 19.0723 18.9298 9.48004 30.8445 7.51672C28.7845 19.521 19.3752 29.1133 7.46058 31.0766C7.1822 32.6753 7.09868 34.274 7.09868 35.8727C7.09868 36.7983 7.09868 37.7519 7.1822 38.5933C24.1355 38.2287 37.7483 24.4293 38.1937 7.23625V6.39482C38.2772 4.40345 38.0823 2.44013 37.7205 0.560949ZM5.40057 50.4013C6.90382 49.7562 8.29572 48.8867 9.49275 47.7648C8.18436 44.9601 7.43274 41.959 7.07084 38.6494H6.23571C4.28705 38.6494 2.31055 38.4531 0.473245 38.0885C1.19703 42.6041 2.97866 46.7551 5.40057 50.4013Z" fill="#00AEEF"/>
</svg>

<svg width="167" height="52" viewBox="0 0 167 52" fill="none" xmlns="http://www.w3.org/2000/svg"><path d="M38.194 27.963c0-6.002 4.203-10.882 10.16-10.882 6.626 0 9.967 5.245 9.967 11.275 0 .28 0 1.122-.084 1.318H43.065c.474 3.366 2.896 5.245 5.958 5.245 2.338 0 4.008-.841 5.595-2.524l2.784 2.524c-1.949 2.356-4.649 3.955-8.49 3.955-6.18.084-10.718-4.32-10.718-10.91zm15.255-1.402c-.279-3.085-2.144-5.525-5.206-5.525-2.895 0-4.927 2.243-5.4 5.525h10.606zm5.957 1.515c0-5.919 4.566-10.883 10.718-10.883 3.925 0 6.347 1.515 8.296 3.562l-2.98 3.198c-1.502-1.515-2.978-2.637-5.4-2.637-3.452 0-5.957 3.001-5.957 6.76 0 3.758 2.505 6.759 6.236 6.759 2.227 0 3.925-1.038 5.4-2.636l2.895 2.804c-2.06 2.244-4.482 3.955-8.49 3.955-6.236 0-10.718-4.88-10.718-10.882zm19.208 0c0-6.003 4.76-10.883 11.08-10.883 6.347 0 10.996 4.88 10.996 10.883 0 5.917-4.76 10.882-11.08 10.882-6.347 0-10.996-4.88-10.996-10.882zm17.316 0c0-3.675-2.617-6.76-6.347-6.76-3.814 0-6.236 3.001-6.236 6.76 0 3.674 2.617 6.759 6.347 6.759 3.814-.112 6.236-3.113 6.236-6.76zm5.233 7.684l2.144-3.281c2.227 1.683 4.649 2.524 6.792 2.524 2.06 0 3.257-.841 3.257-2.356 0-1.514-1.948-2.075-4.287-2.72-.083 0-.278-.084-.362-.084-3.062-.926-6.43-2.16-6.43-6.283 0-3.955 3.257-6.395 7.349-6.395 2.617 0 5.401.926 7.628 2.356l-1.866 3.366c-1.948-1.234-4.092-1.964-5.873-1.964-1.866 0-2.896.842-2.896 2.16 0 1.402 1.949 2.076 4.287 2.805.084 0 .279.084.362.084 2.979.925 6.431 2.356 6.431 6.198 0 4.404-3.341 6.563-7.739 6.563-3.034.113-6.291-1.01-8.797-2.972zm17.51-7.684c0-6.003 4.761-10.883 11.08-10.883 6.347 0 10.996 4.88 10.996 10.883 0 5.917-4.761 10.882-11.08 10.882-6.347 0-10.996-4.88-10.996-10.882zm17.315 0c0-3.675-2.616-6.76-6.347-6.76-3.813 0-6.235 3.001-6.235 6.76 0 3.674 2.616 6.759 6.347 6.759 3.814-.112 6.235-3.113 6.235-6.76zm7.739-6.395h-2.616v-4.04h2.616v-1.514c0-2.356 1.114-7.516 10.161-7.516v4.123c-1.67 0-5.484 0-5.484 3.758v1.122h5.484v3.954h-5.4v16.8h-4.761V21.682zm13.029 10.994V12.874c1.113.196 3.73.757 4.76 1.514v3.282h3.173v3.955h-3.173v10.237c0 1.88.919 2.636 2.505 2.636 1.03 0 1.949-.28 2.979-.757v3.955c-1.225.645-2.505 1.038-4.287 1.038-3.424.028-5.957-1.459-5.957-6.059zM39.753 45.325h.751l1.309 4.038 1.308-4.038h.64l1.309 4.038 1.308-4.038h.752L45.348 50.4h-.64l-1.309-3.954-1.308 3.954h-.64l-1.698-5.076zm7.46 3.478c0-1.038.835-1.6 2.144-1.6.64 0 1.113.085 1.503.197v-.196c0-.842-.557-1.318-1.503-1.318-.557 0-1.03.196-1.504.364l-.194-.56c.556-.281 1.03-.477 1.781-.477.752 0 1.225.196 1.587.56.362.365.557.842.557 1.515v3.001h-.752v-.757c-.362.477-.919.841-1.782.841-.89.028-1.837-.533-1.837-1.57zm3.647-.365v-.477c-.362-.084-.835-.196-1.503-.196-.919 0-1.504.364-1.504 1.038 0 .673.557 1.037 1.225 1.037 1.03-.084 1.782-.56 1.782-1.402zm1.865.56v-3h-.64v-.645h.64v-1.515h.752v1.515h1.587v.645h-1.587v2.917c0 .56.362.841.835.841.278 0 .473-.084.752-.196v.645c-.279.084-.557.196-.92.196-.862 0-1.419-.477-1.419-1.402zm4.927.758c.64 0 1.114-.28 1.587-.757l.474.364c-.474.562-1.114.926-2.06.926-1.392 0-2.506-1.038-2.506-2.636 0-1.403 1.03-2.637 2.422-2.637 1.503 0 2.338 1.234 2.338 2.637v.28H55.9c.083 1.262.918 1.823 1.753 1.823zm1.392-2.272c-.083-.925-.64-1.683-1.586-1.683-.836 0-1.504.758-1.587 1.683h3.173zm1.504-2.16h.751v1.319c.362-.842 1.114-1.402 2.06-1.402v.841h-.083c-1.114 0-1.949.757-1.949 2.244v1.963h-.752c-.027.028-.027-4.964-.027-4.964zm5.567 0h.752v1.038c.362-.56 1.03-1.121 1.865-1.121 1.225 0 2.338.925 2.338 2.636 0 1.599-1.224 2.636-2.338 2.636-.919 0-1.503-.476-1.865-1.037V52h-.752v-6.675zm4.287 2.44c0-1.233-.835-1.963-1.781-1.963-.947 0-1.782.758-1.782 1.964s.835 1.963 1.782 1.963c.946 0 1.781-.73 1.781-1.963zm1.504-2.44h.751v1.319c.362-.842 1.114-1.402 2.06-1.402v.841h-.083c-1.114 0-1.95.757-1.95 2.244v1.963h-.778v-4.964zm2.783 2.44c0-1.402 1.114-2.636 2.617-2.636s2.617 1.234 2.617 2.637c0 1.402-1.114 2.636-2.617 2.636-1.587 0-2.617-1.206-2.617-2.636zm4.399 0c0-1.037-.835-1.963-1.865-1.963-1.114 0-1.782.842-1.782 1.964 0 1.122.751 1.963 1.865 1.963 1.03.028 1.782-.813 1.782-1.963zm1.559-1.766h-.64v-.645h.64v-.477c0-.561.194-1.038.473-1.318.278-.28.64-.365 1.03-.365s.557 0 .835.084v.645c-.278-.084-.473-.084-.752-.084-.556 0-.835.365-.835 1.038v.365h1.587v.645h-1.587v4.319h-.751v-4.207zm4.76 3.758c.64 0 1.113-.28 1.587-.757l.473.364c-.473.562-1.114.926-2.06.926-1.392 0-2.505-1.038-2.505-2.636 0-1.403 1.03-2.637 2.338-2.637 1.503 0 2.338 1.234 2.338 2.637v.28h-3.925c.084 1.262.919 1.823 1.754 1.823zm1.503-2.272c-.083-.925-.557-1.683-1.587-1.683-.835 0-1.503.758-1.586 1.683h3.173zm.919 2.16l.362-.56c.556.364 1.113.644 1.67.644.557 0 1.03-.28 1.03-.841 0-.477-.557-.645-1.225-.842-.751-.196-1.67-.477-1.67-1.402 0-.842.752-1.402 1.67-1.402.557 0 1.309.196 1.782.56l-.362.561c-.473-.28-1.03-.476-1.503-.476-.557 0-.92.28-.92.757s.641.645 1.31.841c.751.197 1.586.561 1.586 1.403 0 .925-.751 1.514-1.781 1.514-.557 0-1.392-.28-1.95-.757zm4.203 0l.362-.56c.557.364 1.114.644 1.67.644.557 0 1.03-.28 1.03-.841 0-.477-.556-.645-1.224-.842-.752-.196-1.67-.477-1.67-1.402 0-.842.751-1.402 1.67-1.402.556 0 1.308.196 1.781.56l-.362.561c-.473-.28-1.03-.476-1.503-.476-.557 0-.918.28-.918.757s.64.645 1.308.841c.751.197 1.587.561 1.587 1.403 0 .925-.752 1.514-1.782 1.514-.64 0-1.392-.28-1.949-.757zm4.454-6.283h.835v.842h-.835v-.842zm0 1.964h.752v4.964h-.752v-4.964zm1.504 2.44c0-1.403 1.113-2.637 2.616-2.637 1.504 0 2.617 1.234 2.617 2.637 0 1.402-1.113 2.636-2.617 2.636-1.503 0-2.616-1.206-2.616-2.636zm4.454 0c0-1.038-.835-1.964-1.865-1.964-1.114 0-1.782.842-1.782 1.964 0 1.122.752 1.963 1.865 1.963 1.058.028 1.782-.813 1.782-1.963zm1.419-2.44h.752v.841c.278-.56.835-.925 1.67-.925 1.225 0 1.866.841 1.866 1.963v3.085h-.752v-2.917c0-.925-.473-1.514-1.392-1.514-.835 0-1.503.645-1.503 1.598v2.805h-.752v-4.964c0 .028.111.028.111.028zm4.928 3.478c0-1.038.835-1.6 2.143-1.6.641 0 1.114.085 1.504.197v-.196c0-.842-.557-1.318-1.504-1.318-.556 0-1.03.196-1.503.364l-.195-.56c.557-.281 1.114-.477 1.782-.477.751 0 1.225.196 1.587.56.361.365.556.842.556 1.515v3.001h-.751v-.757c-.362.477-.919.841-1.782.841-.919.028-1.837-.533-1.837-1.57zm3.647-.365v-.477c-.362-.084-.836-.196-1.504-.196-.918 0-1.503.364-1.503 1.038 0 .673.557 1.037 1.225 1.037 1.03-.084 1.782-.56 1.782-1.402zm1.753-5.16h.752v7.04h-.752v-7.04zm1.309 6.366l.362-.56c.556.364 1.113.644 1.67.644.557 0 1.03-.28 1.03-.841 0-.477-.557-.645-1.225-.842-.752-.196-1.67-.477-1.67-1.402 0-.842.751-1.402 1.67-1.402.557 0 1.308.196 1.782.56l-.362.561c-.473-.28-1.03-.476-1.503-.476-.557 0-.919.28-.919.757s.64.645 1.308.841c.752.197 1.587.561 1.587 1.403 0 .925-.752 1.514-1.782 1.514-.556 0-1.391-.28-1.948-.757zM37.72.561A30.187 30.187 0 0031.959 0h-.835C14.142.477.445 14.276 0 31.357c.919.084 1.782.084 2.7.084 1.587 0 3.174-.196 4.76-.364C9.52 19.072 18.93 9.48 30.845 7.517c-2.06 12.004-11.469 21.596-23.383 23.56-.279 1.598-.362 3.197-.362 4.796 0 .925 0 1.879.083 2.72C24.135 38.23 37.748 24.43 38.194 7.236v-.841c.083-1.992-.112-3.955-.474-5.834zM5.4 50.4c1.504-.645 2.896-1.514 4.093-2.636-1.309-2.805-2.06-5.806-2.422-9.116h-.835a29.97 29.97 0 01-5.763-.56c.724 4.515 2.506 8.666 4.928 12.312z" fill="#00AEEF"/></svg>
